X: 36
T:Missa Pro Defunctis / Gradual
N: Derived from Jos0404c-Missa_Pro_Defunctis-Gradual.krn
C: Josquin des Prez
%%abc-version 2.0
%%abcx-abcm2ps-target-version 5.9.1 (29 Sep 2008)
%%abc-creator hum2abc beta
%%abcx-conversion-date 2019/02/12 16:15:39
%%abc-edited-by Jesse Rodin
%%abc-edited-by Will Watson 31/05/2011
%%abcx-initial-encoding-date 2012/01/21/
%%humdrum-veritas 3702923095
%%humdrum-veritas-data 1432477401
%%linebreak <none>
%%barnumbers 0
L: 1/4
M: 2/1
Q: 1/2=120
V: 1 clef=treble
V: 2 clef=treble-8
V: 3 clef=treble-8
V: 4 clef=treble-8
V: 5 clef=bass
V: 6 clef=bass
K: C
[V:1] z8 | 
[V:2] z8 | 
[V:3] z8 | 
[V:4] z8 | 
[V:5] z8 | 
[V:6] F,8 | 
[V:1] z8 | 
[V:2] z8 | 
[V:3] z8 | 
[V:4] z8 | 
[V:5] z8 | 
[V:6] G,4A,4- | 
[V:1] z8 | 
[V:2] c8- | 
[V:3] F8 | 
[V:4] z8 | 
[V:5] z8 | 
[V:6] A,2A,2A,3G,/F,/ | 
[V:1] z8 | 
[V:2] c8 | 
[V:3] G4A4- | 
[V:4] z8 | 
[V:5] z8 | 
[V:6] E,4F,4 | 
[V:1] F8 | 
[V:2] d8 | 
[V:3] A2A2A4 | 
[V:4] z8 | 
[V:5] z8 | 
[V:6] D,8 | 
[V:1] G8 | 
[V:2] e8 | 
[V:3] c6B2 | 
[V:4] z8 | 
[V:5] z8 | 
[V:6] C,4C4- | 
[V:1] A6A2 | 
[V:2] c8 | 
[V:3] A3Gc4- | 
[V:4] z8 | 
[V:5] F,8 | 
[V:6] C2B,2A,3G, | 
[V:1] A4c4- | 
[V:2] z4c4- | 
[V:3] c2B2A2GF | 
[V:4] z8 | 
[V:5] F,4F,4 | 
[V:6] F,6E,D, | 
[V:1] c2BAG4 | 
[V:2] c2d2e4 | 
[V:3] E4c4- | 
[V:4] c8 | 
[V:5] G,8 | 
[V:6] C,8 | 
[V:1] A8 | 
[V:2] f4F4 | 
[V:3] c2B2A2G2 | 
[V:4] c4c4 | 
[V:5] F,8 | 
[V:6] F,6E,2 | 
[V:1] z8 | 
[V:2] A4B4 | 
[V:3] F2E2D4 | 
[V:4] d8 | 
[V:5] F,4G,4 | 
[V:6] D,3C,B,,4 | 
[V:1] A8- | 
[V:2] c8 | 
[V:3] E4A,4 | 
[V:4] c8 | 
[V:5] A,8- | 
[V:6] A,,4A,3G, | 
[V:1] A6GF | 
[V:2] z2F2A3B | 
[V:3] z4F4 | 
[V:4] c4d4 | 
[V:5] A,8 | 
[V:6] F,E,F,3E,D,2 | 
[V:1] A2G2G4- | 
[V:2] cde4dc | 
[V:3] E6F2 | 
[V:4] e8- | 
[V:5] z8 | 
[V:6] C,6D,2 | 
[V:1] G2F2E3D | 
[V:2] BAB2c4 | 
[V:3] G4A4- | 
[V:4] e8 | 
[V:5] z8 | 
[V:6] E,4A,,4 | 
[V:1] F8 | 
[V:2] d4A4- | 
[V:3] A2DEFGAB | 
[V:4] z8 | 
[V:5] z8 | 
[V:6] D,8 | 
[V:1] E8 | 
[V:2] A2GFE4 | 
[V:3] c2d4c2 | 
[V:4] z8 | 
[V:5] z8 | 
[V:6] A,,8 | 
[V:1] D3EFGA2- | 
[V:2] F6f2- | 
[V:3] B2A2d4- | 
[V:4] z8 | 
[V:5] z4A,4- | 
[V:6] D,8- | 
[V:1] A2G4^F2 | 
[V:2] f2edd4 | 
[V:3] d2cBA4 | 
[V:4] z8 | 
[V:5] A,4A,4 | 
[V:6] D,8 | 
[V:1] G8 | 
[V:2] z2G2c4 | 
[V:3] G6F2 | 
[V:4] z4e4- | 
[V:5] B,4G,4 | 
[V:6] z4C,4- | 
[V:1] z8 | 
[V:2] c6B2 | 
[V:3] E3DE4 | 
[V:4] e4e4 | 
[V:5] A,8 | 
[V:6] C,4A,,4 | 
[V:1] z4D4 | 
[V:2] A2F2f4 | 
[V:3] z2A2B2A2- | 
[V:4] f4d4 | 
[V:5] F,8 | 
[V:6] D,8 | 
[V:1] A4A4 | 
[V:2] e4c4 | 
[V:3] A2GFEDE2 | 
[V:4] e8 | 
[V:5] z4A,4- | 
[V:6] A,,8 | 
[V:1] A8 | 
[V:2] f6e2 | 
[V:3] F4z4 | 
[V:4] c8 | 
[V:5] A,4A,4 | 
[V:6] z2F,4F,2 | 
[V:1] G4c4- | 
[V:2] d4c4 | 
[V:3] z8 | 
[V:4] z4e4- | 
[V:5] B,4G,4 | 
[V:6] G,4C,4 | 
[V:1] c2B2A4- | 
[V:2] z8 | 
[V:3] z4c4- | 
[V:4] e4e4 | 
[V:5] A,8 | 
[V:6] C6B,2 | 
[V:1] A8- | 
[V:2] z8 | 
[V:3] c4A4 | 
[V:4] f4d4 | 
[V:5] F,8 | 
[V:6] A,2G,2F,4 | 
[V:1] A2GFG4 | 
[V:2] z8 | 
[V:3] c4B4 | 
[V:4] e8 | 
[V:5] z8 | 
[V:6] E,8 | 
[V:1] A4F4- | 
[V:2] z4c4 | 
[V:3] A8 | 
[V:4] c8 | 
[V:5] z8 | 
[V:6] F,6E,2 | 
[V:1] F2E2D3E | 
[V:2] _B4A4- | 
[V:3] z4F4- | 
[V:4] z8 | 
[V:5] z8 | 
[V:6] D,3C,D,4- | 
[V:1] F2G3FG/F/E/D/ | 
[V:2] A2GFG4 | 
[V:3] F2E2DCDE | 
[V:4] z8 | 
[V:5] z8 | 
[V:6] D,2G,,2B,,4 | 
[V:1] C8 | 
[V:2] A6A/G/F/E/ | 
[V:3] F2E2C2c2- | 
[V:4] z8 | 
[V:5] z8 | 
[V:6] A,,8 | 
[V:1] z4F4- | 
[V:2] F2f3edc | 
[V:3] cBAGF4- | 
[V:4] z8 | 
[V:5] z8 | 
[V:6] z8 | 
[V:1] F4D4 | 
[V:2] d2c4B2 | 
[V:3] F4G4 | 
[V:4] z8 | 
[V:5] z8 | 
[V:6] z8 | 
[V:1] E6F2 | 
[V:2] c4e4- | 
[V:3] z4c4- | 
[V:4] z8 | 
[V:5] z8 | 
[V:6] A,6A,2 | 
[V:1] G4G4 | 
[V:2] e2e2d4 | 
[V:3] c4B4 | 
[V:4] z8 | 
[V:5] z8 | 
[V:6] G,4G,4 | 
[V:1] A8- | 
[V:2] f8 | 
[V:3] A4d4 | 
[V:4] z8 | 
[V:5] z8 | 
[V:6] F,4D,4 | 
[V:1] A8 | 
[V:2] e4e4 | 
[V:3] d4^c4 | 
[V:4] z8 | 
[V:5] z8 | 
[V:6] A,8 | 
[V:1] A6B2 | 
[V:2] d2f4ed | 
[V:3] d4A4- | 
[V:4] z8 | 
[V:5] z8 | 
[V:6] D,8 | 
[V:1] c6B2 | 
[V:2] c4A4 | 
[V:3] A2B2c4- | 
[V:4] z8 | 
[V:5] F,8 | 
[V:6] z8 | 
[V:1] A2G2F4 | 
[V:2] z8 | 
[V:3] c2BAB4 | 
[V:4] z8 | 
[V:5] F,4D,4 | 
[V:6] F,8 | 
[V:1] E6D2 | 
[V:2] z8 | 
[V:3] c8 | 
[V:4] c8 | 
[V:5] C,4F,4- | 
[V:6] G,4A,4- | 
[V:1] C2B,2A,2c2- | 
[V:2] c6d2 | 
[V:3] z8 | 
[V:4] c4A4 | 
[V:5] F,4F,4 | 
[V:6] A,2G,2F,4 | 
[V:1] c2B2A4 | 
[V:2] e4A4 | 
[V:3] z8 | 
[V:4] G4c4- | 
[V:5] z8 | 
[V:6] E,4F,4 | 
[V:1] G3FG4 | 
[V:2] e8 | 
[V:3] z4c4- | 
[V:4] c4c4 | 
[V:5] z4E,4 | 
[V:6] C,8 | 
[V:1] A8 | 
[V:2] A4f4- | 
[V:3] c2B2A3G | 
[V:4] z8 | 
[V:5] F,6E,2 | 
[V:6] z4F,4- | 
[V:1] z8 | 
[V:2] f2e2d4 | 
[V:3] A4D4 | 
[V:4] z4B4 | 
[V:5] D,2C,2B,,4 | 
[V:6] F,4G,4 | 
[V:1] z8 | 
[V:2] c3BA2G2 | 
[V:3] E8 | 
[V:4] c6B2 | 
[V:5] A,,8 | 
[V:6] A,4A,,4 | 
[V:1] D4D2D2- | 
[V:2] F3GA4 | 
[V:3] z4D4 | 
[V:4] A2G2F4 | 
[V:5] z8 | 
[V:6] D,8 | 
[V:1] D2^CB,C4 | 
[V:2] z2e4e2 | 
[V:3] A4A4 | 
[V:4] E8 | 
[V:5] z4A,4 | 
[V:6] A,,8 | 
[V:1] D4z2F2 | 
[V:2] g3fe2d2 | 
[V:3] G6F2 | 
[V:4] z8 | 
[V:5] _B,6A,2 | 
[V:6] z8 | 
[V:1] G2A3Bc2 | 
[V:2] cBd4c2 | 
[V:3] E2D2A4 | 
[V:4] z4e4 | 
[V:5] G,2F,2E,4 | 
[V:6] z4A,,4 | 
[V:1] B2A3GA/G/F/E/ | 
[V:2] d4A4 | 
[V:3] F8 | 
[V:4] f6e2 | 
[V:5] D,8 | 
[V:6] D,6C,2 | 
[V:1] FEA4G2 | 
[V:2] z4e4- | 
[V:3] F4G3F | 
[V:4] d2c2B4 | 
[V:5] z8 | 
[V:6] B,,2A,,2E,4 | 
[V:1] A3GF2E2 | 
[V:2] e4c4 | 
[V:3] ECc4BA | 
[V:4] A8 | 
[V:5] z4A,4 | 
[V:6] A,,8 | 
[V:1] G6F2 | 
[V:2] d6c2 | 
[V:3] G4z4 | 
[V:4] z8 | 
[V:5] _B,6A,2 | 
[V:6] z8 | 
[V:1] E2D4^C2 | 
[V:2] B2AGA4 | 
[V:3] z2D2E2C2 | 
[V:4] z4e4 | 
[V:5] G,2F,2E,4 | 
[V:6] z4A,,4 | 
[V:1] D8- | 
[V:2] A8 | 
[V:3] F4D4- | 
[V:4] f6e2 | 
[V:5] D,8- | 
[V:6] D,6C,2 | 
[V:1] D8- | 
[V:2] z8 | 
[V:3] D2EFG4 | 
[V:4] d2c2_B4 | 
[V:5] D,8- | 
[V:6] _B,,2A,,2G,,4 | 
[V:1] D8 ||  
[V:2] A8 ||  
[V:3] F8 ||  
[V:4] A8 ||  
[V:5] D,8 ||  
[V:6] D,8 ||  
[V:1]  [K:C] [K:clef=treble][M:2/1]z8 | 
[V:2]  [K:C] [K:clef=treble-8][M:2/1]d8 | 
[V:3]  [K:C] [K:clef=treble-8][M:2/1]D8 | 
[V:4]  [K:C] [K:clef=treble-8][M:2/1]z8 | 
[V:5]  [K:C] [K:clef=bass][M:2/1]z8 | 
[V:6]  [K:C] [K:clef=bass][M:2/1]z8 | 
[V:1] A8- | 
[V:2] c4f4- | 
[V:3] F6ED | 
[V:4] z8 | 
[V:5] z8 | 
[V:6] z8 | 
[V:1] A8 | 
[V:2] f4e4 | 
[V:3] F3GA4 | 
[V:4] z8 | 
[V:5] z8 | 
[V:6] z8 | 
[V:1] F8 | 
[V:2] d6c_B | 
[V:3] _B6AG | 
[V:4] z8 | 
[V:5] z8 | 
[V:6] z8 | 
[V:1] A8- | 
[V:2] c4d4 | 
[V:3] F4D4 | 
[V:4] z8 | 
[V:5] z8 | 
[V:6] z8 | 
[V:1] A6GF | 
[V:2] A6B2 | 
[V:3] F6ED | 
[V:4] z8 | 
[V:5] z8 | 
[V:6] z8 | 
[V:1] E4G4- | 
[V:2] c2d2e4- | 
[V:3] C6D2 | 
[V:4] z8 | 
[V:5] z8 | 
[V:6] z8 | 
[V:1] G4F4 | 
[V:2] e2d2d4- | 
[V:3] E4F4 | 
[V:4] z8 | 
[V:5] z8 | 
[V:6] z8 | 
[V:1] E8 | 
[V:2] d4^c4 | 
[V:3] G4A4 | 
[V:4] z8 | 
[V:5] z8 | 
[V:6] z8 | 
[V:1] D8- | 
[V:2] d8 | 
[V:3] z4D4- | 
[V:4] z8 | 
[V:5] z8 | 
[V:6] z8 | 
[V:1] D8 | 
[V:2] z4d4- | 
[V:3] D2E2F2D2 | 
[V:4] z8 | 
[V:5] z8 | 
[V:6] z8 | 
[V:1] z8 | 
[V:2] d4c4 | 
[V:3] F2G2A2F2 | 
[V:4] z8 | 
[V:5] z8 | 
[V:6] z8 | 
[V:1] z4D4- | 
[V:2] d4f4- | 
[V:3] _B8 | 
[V:4] z8 | 
[V:5] z8 | 
[V:6] z8 | 
[V:1] D4C4 | 
[V:2] f2ede4 | 
[V:3] A8 | 
[V:4] z8 | 
[V:5] z8 | 
[V:6] z8 | 
[V:1] D4F4- | 
[V:2] f4d4- | 
[V:3] z8 | 
[V:4] z8 | 
[V:5] z8 | 
[V:6] z8 | 
[V:1] F2EDF2G2 | 
[V:2] d4z2c2- | 
[V:3] D6E2 | 
[V:4] z8 | 
[V:5] z8 | 
[V:6] z8 | 
[V:1] A4c4- | 
[V:2] c2d2e2c2 | 
[V:3] F2D2A4- | 
[V:4] z8 | 
[V:5] z8 | 
[V:6] z8 | 
[V:1] c2A2B2c2- | 
[V:2] f3ed2c2 | 
[V:3] A4z2A2- | 
[V:4] z8 | 
[V:5] z8 | 
[V:6] z8 | 
[V:1] c2BAG2A2- | 
[V:2] f4e4 | 
[V:3] A2B2c2A2 | 
[V:4] z8 | 
[V:5] z8 | 
[V:6] z8 | 
[V:1] AGFEF2G2 | 
[V:2] d4z2c2- | 
[V:3] d2D4E2 | 
[V:4] z8 | 
[V:5] z8 | 
[V:6] z8 | 
[V:1] A2B2c4- | 
[V:2] c2d2e2c2 | 
[V:3] F2D2A4- | 
[V:4] z8 | 
[V:5] z8 | 
[V:6] z8 | 
[V:1] c2A2B2c2- | 
[V:2] f3ed2c2 | 
[V:3] A2F2G2A2- | 
[V:4] z8 | 
[V:5] z8 | 
[V:6] z8 | 
[V:1] cBA4G2 | 
[V:2] A4d4- | 
[V:3] ABcdB4 | 
[V:4] z8 | 
[V:5] z8 | 
[V:6] z8 | 
[V:1] A8- | 
[V:2] d2cBc4 | 
[V:3] A8 | 
[V:4] z8 | 
[V:5] z8 | 
[V:6] z8 | 
[V:1] A8- | 
[V:2] d4f4- | 
[V:3] z4D4 | 
[V:4] z8 | 
[V:5] z8 | 
[V:6] z8 | 
[V:1] A8- | 
[V:2] f2ede4 | 
[V:3] A4A3B | 
[V:4] z8 | 
[V:5] z8 | 
[V:6] z8 | 
[V:1] A8 | 
[V:2] z4A4 | 
[V:3] cAd4c2 | 
[V:4] z8 | 
[V:5] z8 | 
[V:6] z8 | 
[V:1] z4D4 | 
[V:2] d4d4 | 
[V:3] B3AG2FE | 
[V:4] z8 | 
[V:5] z8 | 
[V:6] z8 | 
[V:1] A4A4 | 
[V:2] f6ed | 
[V:3] D8 | 
[V:4] z8 | 
[V:5] z8 | 
[V:6] z8 | 
[V:1] c4B2A2- | 
[V:2] e2f2d4 | 
[V:3] z4D4 | 
[V:4] z8 | 
[V:5] z8 | 
[V:6] z8 | 
[V:1] AGFEF3G | 
[V:2] c8 | 
[V:3] A4A3B | 
[V:4] z8 | 
[V:5] z8 | 
[V:6] z8 | 
[V:1] E8 | 
[V:2] z4A4 | 
[V:3] cdc4BA | 
[V:4] z8 | 
[V:5] z8 | 
[V:6] z8 | 
[V:1] z4D4 | 
[V:2] d4d4 | 
[V:3] G3ABcd2- | 
[V:4] z8 | 
[V:5] z8 | 
[V:6] z8 | 
[V:1] A4A3B | 
[V:2] e4f4- | 
[V:3] d2^c2d4 | 
[V:4] z8 | 
[V:5] z8 | 
[V:6] z8 | 
[V:1] cdc3BA2 | 
[V:2] f2e2e4- | 
[V:3] A6c2- | 
[V:4] z8 | 
[V:5] z8 | 
[V:6] z8 | 
[V:1] G2A2B4 | 
[V:2] e4z2d2- | 
[V:3] cBA2G4 | 
[V:4] z8 | 
[V:5] z8 | 
[V:6] z8 | 
[V:1] z2A4G2 | 
[V:2] d2c2d2e2 | 
[V:3] F4z4 | 
[V:4] z8 | 
[V:5] z8 | 
[V:6] z8 | 
[V:1] A2c3BB2 | 
[V:2] f3ee2d2 | 
[V:3] z8 | 
[V:4] z8 | 
[V:5] z8 | 
[V:6] z8 | 
[V:1] A2c3BB2 | 
[V:2] f4e4- | 
[V:3] z2A4G2 | 
[V:4] z8 | 
[V:5] z8 | 
[V:6] z8 | 
[V:1] A4G4 | 
[V:2] e4z2d2- | 
[V:3] A2c3BB2- | 
[V:4] z8 | 
[V:5] z8 | 
[V:6] z8 | 
[V:1] z2F3EFG | 
[V:2] d2cBd2c2- | 
[V:3] B2AGB2A2 | 
[V:4] z8 | 
[V:5] z8 | 
[V:6] z8 | 
[V:1] ABc3BB2 | 
[V:2] cBAGF2f2- | 
[V:3] FGABc2d2- | 
[V:4] z8 | 
[V:5] z8 | 
[V:6] z8 | 
[V:1] A2c3BB2- | 
[V:2] fee2c2d2- | 
[V:3] d2cBA2G2- | 
[V:4] z8 | 
[V:5] z8 | 
[V:6] z8 | 
[V:1] BAA4^G2 | 
[V:2] dAc2B4 | 
[V:3] GFA2E4 | 
[V:4] z8 | 
[V:5] z8 | 
[V:6] z8 | 
[V:1] A8- | 
[V:2] A4z2A2 | 
[V:3] z2A2F2A2- | 
[V:4] z8 | 
[V:5] z8 | 
[V:6] z8 | 
[V:1] A8 | 
[V:2] F2A3Bcd | 
[V:3] AGFEF3E/D/ | 
[V:4] z8 | 
[V:5] z8 | 
[V:6] z8 | 
[V:1] z4z2A2 | 
[V:2] e2d4c2 | 
[V:3] C2D2E2F2- | 
[V:4] z8 | 
[V:5] z8 | 
[V:6] z8 | 
[V:1] F2A3GE2 | 
[V:2] d4c4- | 
[V:3] F2D2A4 | 
[V:4] z8 | 
[V:5] z8 | 
[V:6] z4z2A,2 | 
[V:1] F3DE4 | 
[V:2] c4z2c2- | 
[V:3] z8 | 
[V:4] z8 | 
[V:5] z8 | 
[V:6] F,2A,3G,E,2 | 
[V:1] z2D4C2 | 
[V:2] c2d2e4 | 
[V:3] z2A3Bc2 | 
[V:4] z8 | 
[V:5] z8 | 
[V:6] F,2D,2A,4 | 
[V:1] D3EF2D2 | 
[V:2] f4d2f2- | 
[V:3] A2d4cB | 
[V:4] z8 | 
[V:5] z8 | 
[V:6] D,8 | 
[V:1] F3GA_BA2- | 
[V:2] fed2c2d2- | 
[V:3] A8 | 
[V:4] z8 | 
[V:5] z8 | 
[V:6] D,3E,F,2D,2 | 
[V:1] AGG4^F2 | 
[V:2] dcB2A4 | 
[V:3] z2d4d2 | 
[V:4] z8 | 
[V:5] z8 | 
[V:6] F,2G,2D,4 | 
[V:1] G8 | 
[V:2] GABcdGg2- | 
[V:3] B4G3A | 
[V:4] z8 | 
[V:5] z8 | 
[V:6] z4G,4- | 
[V:1] z4G4- | 
[V:2] gfede2d2 | 
[V:3] B2c4BA | 
[V:4] z8 | 
[V:5] z8 | 
[V:6] G,2C,2C,2G,2- | 
[V:1] G4G4 | 
[V:2] z4e4 | 
[V:3] B4c4 | 
[V:4] z8 | 
[V:5] z8 | 
[V:6] G,F,E,D,E,4 | 
[V:1] A3GABc2 | 
[V:2] f6e2 | 
[V:3] F3ED2C2 | 
[V:4] z8 | 
[V:5] z8 | 
[V:6] D,6A,,2 | 
[V:1] B2A4^G2 | 
[V:2] d2c2B4 | 
[V:3] D2E2F2E2- | 
[V:4] z8 | 
[V:5] z8 | 
[V:6] B,,2C,2D,2E,2 | 
[V:1] A4c4 | 
[V:2] ABcde2f2 | 
[V:3] ECc4BA | 
[V:4] z8 | 
[V:5] z4A,4 | 
[V:6] A,,8 | 
[V:1] _B3AG2F2 | 
[V:2] g2d3cf2 | 
[V:3] GA_Bcd3c | 
[V:4] z8 | 
[V:5] _B,6A,2 | 
[V:6] z4z2D,2 | 
[V:1] G8 | 
[V:2] e2d2e4 | 
[V:3] BAd4^c2 | 
[V:4] z4e4 | 
[V:5] G,2F,2E,4 | 
[V:6] E,2F,2G,2C,2 | 
[V:1] F4A4- | 
[V:2] A4f4- | 
[V:3] d8 | 
[V:4] f6e2 | 
[V:5] D,8 | 
[V:6] F,4D,3E, | 
[V:1] A4B4 | 
[V:2] f2e2d4 | 
[V:3] z8 | 
[V:4] d2c2B4 | 
[V:5] z8 | 
[V:6] F,G,A,4G,2 | 
[V:1] c3BAGA2- | 
[V:2] c8 | 
[V:3] z8 | 
[V:4] A8 | 
[V:5] z4A,4 | 
[V:6] A,2F,3G,F,D, | 
[V:1] A2G2A4 | 
[V:2] z2g4f2 | 
[V:3] d4d3c | 
[V:4] z8 | 
[V:5] _B,6A,2 | 
[V:6] G,4D,4 | 
[V:1] z2D2D2C2 | 
[V:2] e2d2e4 | 
[V:3] B2A4G2 | 
[V:4] z4e4 | 
[V:5] G,2F,2E,4 | 
[V:6] z4G,4 | 
[V:1] D3EFGAF | 
[V:2] z2A2d4- | 
[V:3] A8 | 
[V:4] f6e2 | 
[V:5] D,8 | 
[V:6] F,3E,D,2C,2 | 
[V:1] G2A2GFED | 
[V:2] d2e3de2 | 
[V:3] z2E3FGF/G/ | 
[V:4] d2c2B4 | 
[V:5] z8 | 
[V:6] B,,2A,,2E,4 | 
[V:1] C3DE2F2 | 
[V:2] f2e3dc2 | 
[V:3] A3G/F/E2A2 | 
[V:4] A8 | 
[V:5] z4A,4 | 
[V:6] A,,8 | 
[V:1] G3FD2E2- | 
[V:2] d2G2z4 | 
[V:3] D2d4c2- | 
[V:4] z8 | 
[V:5] _B,6A,2 | 
[V:6] G,,3A,,_B,,2C,2- | 
[V:1] E2D4^C2 | 
[V:2] z4z2c2 | 
[V:3] c_BAGA4 | 
[V:4] z4e4 | 
[V:5] G,2F,2E,4 | 
[V:6] C,2D,2A,,4 | 
[V:1] D2d3c_BA | 
[V:2] _B2A2d4 | 
[V:3] F4D4 | 
[V:4] f6e2 | 
[V:5] D,8- | 
[V:6] D,6D,2 | 
[V:1] _B2A4G2 | 
[V:2] d8- | 
[V:3] G8 | 
[V:4] d2c2_B4 | 
[V:5] D,8- | 
[V:6] G,,4G,,4 | 
[V:1] A8 |]  
[V:2] d8 |]  
[V:3] F8 |]  
[V:4] A8 |]  
[V:5] D,8 |]  
[V:6] D,8 |]  



